assets/svg/icon_block_coins.svg

<svg width="16" height="16" viewBox="0 0 16 16" fill="none" xmlns="http://www.w3.org/2000/svg">
<g clip-path="url(#clip0_35094_103017)">
<path d="M10.2854 8.57143C13.1258 8.57143 15.4283 7.54808 15.4283 6.28571C15.4283 5.02335 13.1258 4 10.2854 4C7.44511 4 5.14258 5.02335 5.14258 6.28571C5.14258 7.54808 7.44511 8.57143 10.2854 8.57143Z" stroke="#0166FF" stroke-width="1.14286" stroke-linecap="round" stroke-linejoin="round"/>
<path d="M5.14258 6.28516V13.1423C5.14258 14.3994 7.42829 15.428 10.2854 15.428C13.1426 15.428 15.4283 14.3994 15.4283 13.1423V6.28516" stroke="#0166FF" stroke-width="1.14286" stroke-linecap="round" stroke-linejoin="round"/>
<path d="M15.4275 9.71343C15.4275 10.9706 13.1417 11.9991 10.2846 11.9991C7.42746 11.9991 5.14174 10.9706 5.14174 9.71343M10.1703 1.71343C8.83488 0.889292 7.2804 0.49071 5.71317 0.570577C2.86746 0.570577 0.570312 1.59915 0.570312 2.85629C0.570312 3.53058 1.23317 4.13629 2.2846 4.57058" stroke="#0166FF" stroke-width="1.14286" stroke-linecap="round" stroke-linejoin="round"/>
<path d="M2.2846 11.4269C1.23317 10.9926 0.570312 10.3869 0.570312 9.71261V2.85547" stroke="#0166FF" stroke-width="1.14286" stroke-linecap="round" stroke-linejoin="round"/>
<path d="M2.2846 7.99944C1.23317 7.56516 0.570312 6.95944 0.570312 6.28516" stroke="#0166FF" stroke-width="1.14286" stroke-linecap="round" stroke-linejoin="round"/>
</g>
<defs>
<clipPath id="clip0_35094_103017">
<rect width="16" height="16" fill="white"/>
</clipPath>
</defs>
</svg>

<svg xmlns="http://www.w3.org/2000/svg" width="16" height="16" fill="none"><g stroke="#0166FF" stroke-linecap="round" stroke-linejoin="round" stroke-width="1.143" clip-path="url(#a)"><path d="M10.285 8.571c2.84 0 5.143-1.023 5.143-2.285S13.126 4 10.285 4 5.143 5.023 5.143 6.286c0 1.262 2.302 2.285 5.142 2.285"/><path d="M5.143 6.285v6.857c0 1.257 2.285 2.286 5.142 2.286s5.143-1.029 5.143-2.286V6.285"/><path d="M15.428 9.713c0 1.258-2.286 2.286-5.143 2.286-2.858 0-5.143-1.028-5.143-2.286m5.028-8A7.74 7.74 0 0 0 5.713.571C2.867.57.57 1.599.57 2.856c0 .675.663 1.28 1.715 1.715"/><path d="M2.285 11.427C1.233 10.993.57 10.387.57 9.713V2.855"/><path d="M2.285 8C1.233 7.564.57 6.96.57 6.284"/></g><defs><clipPath id="a"><path fill="#fff" d="M0 0h16v16H0z"/></clipPath></defs></svg>
